public/8e3fcdb839413c7bbe64bb287b1bdd20f563f265.svg

<svg preserveAspectRatio="none" width="100%" height="100%" overflow="visible" style="display: block;" viewBox="0 0 85.5142 85.68" fill="none" xmlns="http://www.w3.org/2000/svg">
<g id="burst" filter="url(#filter0_diin_10_145)">
<path d="M42.7571 0L45.2625 2.17873L48.0211 0.331184L50.2336 2.80674L53.2021 1.31951L55.0869 4.05285L58.2184 2.94939L59.7457 5.8974L62.9908 5.19512L64.1366 8.31132L67.4441 8.02129L68.1903 11.2565L71.5081 11.3833L71.843 14.6866L75.1187 15.2282L75.0369 18.5474L78.2189 19.4953L77.7218 22.778L80.7599 24.1173L79.8552 27.3118L82.7015 29.0213L81.4036 32.0773L84.0132 34.13L82.3425 36.9992L84.6742 39.3628L82.6571 42L84.6742 44.6372L82.3425 47.0008L84.0132 49.87L81.4036 51.9227L82.7015 54.9787L79.8552 56.6882L80.7599 59.8827L77.7218 61.222L78.2189 64.5047L75.0369 65.4526L75.1187 68.7718L71.843 69.3134L71.5081 72.6167L68.1903 72.7435L67.4441 75.9787L64.1366 75.6887L62.9908 78.8049L59.7457 78.1026L58.2184 81.0506L55.0869 79.9472L53.2021 82.6805L50.2336 81.1933L48.0211 83.6688L45.2625 81.8213L42.7571 84L40.2518 81.8213L37.4931 83.6688L35.2806 81.1933L32.3121 82.6805L30.4273 79.9472L27.2959 81.0506L25.7685 78.1026L22.5235 78.8049L21.3776 75.6887L18.0701 75.9787L17.3239 72.7435L14.0061 72.6167L13.6713 69.3134L10.3956 68.7718L10.4773 65.4526L7.29535 64.5047L7.79248 61.222L4.75439 59.8827L5.65904 56.6882L2.81275 54.9787L4.11065 51.9227L1.50106 49.87L3.17175 47.0008L0.84 44.6372L2.85712 42L0.84 39.3628L3.17175 36.9992L1.50106 34.13L4.11065 32.0773L2.81275 29.0213L5.65904 27.3118L4.75439 24.1173L7.79248 22.778L7.29535 19.4953L10.4773 18.5474L10.3956 15.2282L13.6713 14.6866L14.0061 11.3833L17.3239 11.2565L18.0701 8.02129L21.3776 8.31132L22.5235 5.19512L25.7685 5.8974L27.2959 2.94939L30.4273 4.05285L32.3121 1.31951L35.2806 2.80674L37.4931 0.331184L40.2518 2.17873L42.7571 0Z" fill="url(#paint0_linear_10_145)"/>
</g>
<defs>
<filter id="filter0_diin_10_145" x="0" y="-0.42" width="85.5142" height="86.1" filterUnits="userSpaceOnUse" color-interpolation-filters="sRGB">
<feFlood flood-opacity="0" result="BackgroundImageFix"/>
<feColorMatrix in="SourceAlpha" type="matrix" values="0 0 0 0 0 0 0 0 0 0 0 0 0 0 0 0 0 0 127 0" result="hardAlpha"/>
<feOffset dy="0.84"/>
<feGaussianBlur stdDeviation="0.42"/>
<feComposite in2="hardAlpha" operator="out"/>
<feColorMatrix type="matrix" values="0 0 0 0 0 0 0 0 0 0 0 0 0 0 0 0 0 0 0.25 0"/>
<feBlend mode="normal" in2="BackgroundImageFix" result="effect1_dropShadow_10_145"/>
<feBlend mode="normal" in="SourceGraphic" in2="BackgroundImageFix" result="shape"/>
<feColorMatrix in="SourceAlpha" type="matrix" values="0 0 0 0 0 0 0 0 0 0 0 0 0 0 0 0 0 0 127 0" result="hardAlpha"/>
<feOffset dx="0.21" dy="-0.42"/>
<feGaussianBlur stdDeviation="0.21"/>
<feComposite in2="hardAlpha" operator="arithmetic" k2="-1" k3="1"/>
<feColorMatrix type="matrix" values="0 0 0 0 0 0 0 0 0 0 0 0 0 0 0 0 0 0 0.5 0"/>
<feBlend mode="normal" in2="shape" result="effect2_innerShadow_10_145"/>
<feColorMatrix in="SourceAlpha" type="matrix" values="0 0 0 0 0 0 0 0 0 0 0 0 0 0 0 0 0 0 127 0" result="hardAlpha"/>
<feOffset dx="0.21" dy="0.42"/>
<feGaussianBlur stdDeviation="0.21"/>
<feComposite in2="hardAlpha" operator="arithmetic" k2="-1" k3="1"/>
<feColorMatrix type="matrix" values="0 0 0 0 0.899374 0 0 0 0 0.830286 0 0 0 0 0.678293 0 0 0 1 0"/>
<feBlend mode="normal" in2="effect2_innerShadow_10_145" result="effect3_innerShadow_10_145"/>
<feTurbulence type="fractalNoise" baseFrequency="2.3809523582458496 2.3809523582458496" stitchTiles="stitch" numOctaves="3" result="noise" seed="1528" />
<feComponentTransfer in="noise" result="coloredNoise1">
<feFuncR type="linear" slope="2" intercept="-0.5" />
<feFuncG type="linear" slope="2" intercept="-0.5" />
<feFuncB type="linear" slope="2" intercept="-0.5" />
<feFuncA type="discrete" tableValues="0 0 0 0 0 0 0 1 1 1 1 1 1 1 1 1 1 1 1 1 1 1 1 1 1 1 1 1 1 1 1 1 1 1 1 1 1 1 1 1 1 1 1 0 0 0 0 0 0 0 0 0 0 0 0 0 0 0 0 0 0 0 0 0 0 0 0 0 0 0 0 0 0 0 0 0 0 0 0 0 0 0 0 0 0 0 0 0 0 0 0 0 0 0 0 0 0 0 0 0 "/>
</feComponentTransfer>
<feComposite operator="in" in2="effect3_innerShadow_10_145" in="coloredNoise1" result="noise1Clipped" />
<feComponentTransfer in="noise1Clipped" result="color1">
<feFuncA type="table" tableValues="0 0.15" />
</feComponentTransfer>
<feMerge result="effect4_noise_10_145">
<feMergeNode in="effect3_innerShadow_10_145" />
<feMergeNode in="color1" />
</feMerge>
<feBlend mode="normal" in="effect4_noise_10_145" in2="effect1_dropShadow_10_145" result="effect4_noise_10_145"/>
</filter>
<linearGradient id="paint0_linear_10_145" x1="42.7571" y1="0" x2="42.7571" y2="84" gradientUnits="userSpaceOnUse">
<stop stop-color="#BFA46A"/>
<stop offset="1" stop-color="#594C31"/>
</linearGradient>
</defs>
</svg>

<svg xmlns="http://www.w3.org/2000/svg" fill="none" overflow="visible" preserveAspectRatio="none" style="display:block" viewBox="0 0 85.514 85.68"><g filter="url(#a)"><path fill="url(#b)" d="m42.76 0 2.5 2.18L48.02.33l2.21 2.48 2.97-1.5 1.89 2.74 3.13-1.1 1.53 2.95 3.24-.7 1.15 3.11 3.3-.29.75 3.24 3.32.12.33 3.3 3.28.55-.08 3.32 3.18.94-.5 3.29 3.04 1.34-.9 3.2 2.84 1.7-1.3 3.06 2.61 2.05L82.34 37l2.33 2.36L82.66 42l2.01 2.64L82.34 47l1.67 2.87-2.6 2.05 1.3 3.06-2.85 1.7.9 3.2-3.04 1.34.5 3.28-3.18.95.08 3.32-3.28.54-.33 3.3-3.32.13-.75 3.24-3.3-.3-1.15 3.12-3.24-.7-1.53 2.95-3.13-1.1-1.89 2.73-2.97-1.49-2.2 2.48-2.77-1.85-2.5 2.18-2.5-2.18-2.77 1.85-2.2-2.48-2.98 1.49-1.88-2.73-3.13 1.1-1.53-2.95-3.25.7-1.14-3.11-3.31.29-.75-3.24-3.31-.12-.34-3.3-3.27-.55.08-3.32-3.19-.95.5-3.28-3.04-1.34.9-3.2-2.84-1.7 1.3-3.06-2.61-2.05L3.17 47 .84 44.64 2.86 42 .84 39.36 3.17 37 1.5 34.13l2.61-2.05-1.3-3.06 2.85-1.7-.9-3.2 3.03-1.34-.5-3.28 3.19-.95-.08-3.32 3.27-.54.34-3.3 3.31-.13.75-3.24 3.3.3 1.15-3.12 3.25.7 1.53-2.95 3.13 1.1 1.88-2.73 2.97 1.49L37.5.33l2.76 1.85z"/></g><defs><linearGradient id="b" x1="42.757" x2="42.757" y1="0" y2="84" gradientUnits="userSpaceOnUse"><stop stop-color="#bfa46a"/><stop offset="1" stop-color="#594c31"/></linearGradient><filter id="a" width="85.514" height="86.1" x="0" y="-.42" color-interpolation-filters="sRGB" filterUnits="userSpaceOnUse"><feFlood flood-opacity="0" result="BackgroundImageFix"/><feColorMatrix in="SourceAlpha" result="hardAlpha" values="0 0 0 0 0 0 0 0 0 0 0 0 0 0 0 0 0 0 127 0"/><feOffset dy=".84"/><feGaussianBlur stdDeviation=".42"/><feComposite in2="hardAlpha" operator="out"/><feColorMatrix values="0 0 0 0 0 0 0 0 0 0 0 0 0 0 0 0 0 0 0.25 0"/><feBlend in2="BackgroundImageFix" result="effect1_dropShadow_10_145"/><feBlend in="SourceGraphic" in2="BackgroundImageFix" result="shape"/><feColorMatrix in="SourceAlpha" result="hardAlpha" values="0 0 0 0 0 0 0 0 0 0 0 0 0 0 0 0 0 0 127 0"/><feOffset dx=".21" dy="-.42"/><feGaussianBlur stdDeviation=".21"/><feComposite in2="hardAlpha" k2="-1" k3="1" operator="arithmetic"/><feColorMatrix values="0 0 0 0 0 0 0 0 0 0 0 0 0 0 0 0 0 0 0.5 0"/><feBlend in2="shape" result="effect2_innerShadow_10_145"/><feColorMatrix in="SourceAlpha" result="hardAlpha" values="0 0 0 0 0 0 0 0 0 0 0 0 0 0 0 0 0 0 127 0"/><feOffset dx=".21" dy=".42"/><feGaussianBlur stdDeviation=".21"/><feComposite in2="hardAlpha" k2="-1" k3="1" operator="arithmetic"/><feColorMatrix values="0 0 0 0 0.899374 0 0 0 0 0.830286 0 0 0 0 0.678293 0 0 0 1 0"/><feBlend in2="effect2_innerShadow_10_145" result="effect3_innerShadow_10_145"/><feTurbulence baseFrequency="2.3809523582458496 2.3809523582458496" numOctaves="3" result="noise" seed="1528" stitchTiles="stitch" type="fractalNoise"/><feComponentTransfer in="noise" result="coloredNoise1"><feFuncR intercept="-.5" slope="2" type="linear"/><feFuncG intercept="-.5" slope="2" type="linear"/><feFuncB intercept="-.5" slope="2" type="linear"/><feFuncA tableValues="0 0 0 0 0 0 0 1 1 1 1 1 1 1 1 1 1 1 1 1 1 1 1 1 1 1 1 1 1 1 1 1 1 1 1 1 1 1 1 1 1 1 1 0 0 0 0 0 0 0 0 0 0 0 0 0 0 0 0 0 0 0 0 0 0 0 0 0 0 0 0 0 0 0 0 0 0 0 0 0 0 0 0 0 0 0 0 0 0 0 0 0 0 0 0 0 0 0 0 0" type="discrete"/></feComponentTransfer><feComposite in="coloredNoise1" in2="effect3_innerShadow_10_145" operator="in" result="noise1Clipped"/><feComponentTransfer in="noise1Clipped" result="color1"><feFuncA tableValues="0 0.15" type="table"/></feComponentTransfer><feMerge result="effect4_noise_10_145"><feMergeNode in="effect3_innerShadow_10_145"/><feMergeNode in="color1"/></feMerge><feBlend in="effect4_noise_10_145" in2="effect1_dropShadow_10_145" result="effect4_noise_10_145"/></filter></defs></svg>
